X: 26176
T: McKenna's
R: jig
M: 6/8
K: Dmajor
|:dcd AFA|dcd g2b|agf ede|fdB BAB|
dcd AFA|dcd g2b|agf ede|fdd d2e:|
|:fed add|fed a2b|agf ede|fdB BAB|
dcd AFA|dcd g2b|agf ede|fdd d2e:|

